X:3192
T:Finnskogspols
R:Finnskogspols
O:Värmland
Z:Karl Ljungkvist, 2013-02-28
M:8/16
L:1/16
K:D
|: A2B A2G FG | A3 d3 f2 | A2B A2G FE |1 E3 D3- D2 :|2 E3 D3 cd |
e3 e3 de | f3 f3 ef | g2f e2d cB | B3 A3 BA | G3 G3 AG | F3 F3 GF |
E2F G2A Bc |1 d3 d3 cd :| d3 d3- d2 ||
(:musicend:)

[[!dublett]] av [[Musik/1078|+]]
(:music:)
